!!!OTL: 113. Kuhlaendisches Wiegenlied.
!!!ARE: Europa, Mitteleuropa, Deutschland, Maehren, Kuhlaendchen
!!!SCT: K0113
!!!TXL: @@VMF
!!!YEM: Copyright 1995, estate of Helmut Schaffrath.
**kern	**text
*clefG2	*
*M2/4	*
*k[f#]	*
*G:	*
!LO:TX:a:t=Einleitung.	!
{8g	Es
=1	=1
8dd	kum-
8dd	-me
8ee	ſechs
8ee	Bol-
=2	=2
4dd	-la-
8b}	-cha,
{8g	ſie
=3	=3
8dd	woll-
8dd	-ta
8ee	's_Kindl
8ee	an-
=4	=4
4dd	-ba-
8b}	-ta.
{8dd	Der
=5	=5
8.dd	erſt'
16cc	hat
8a	ei-
8b	-ne
=6	=6
(8ccL	Pfei-
8ddJ)	.
4b}	-fe,
=7	=7
{8dd	ſi-
8cc	-fa,
8a	ſi-
8b	-fa,
=8	=8
8ccL	Pfei-
8ddJ	.
!LO:TX:a:t=6 mal.	!
8b}	-fe.
{8dd	Der
=9	=9
8.dd	erſt'
16cc	hat
8a	ei-
8b	-ne
=10	=10
(8ccL	Pfei-
8ddJ)	.
4b}	-fe,
=11	=11
{8dd	ſi-
8cc	-fa,
8a	ſi-
8b	-fa,
=12	=12
8ccL	Pfei-
8ddJ	.
8b}	-fe.
==	==
!!!AGN: Kinder -, Wiegen - Lied
!!!ONB: ESAC (Essen Associative Code) Database: KINDER
!!!AMT: simple duple
!!!AIN: vox
!!!EED: Helmut Schaffrath
!!!EEV: 1.0
!!!GTL: I. Wiegenlieder.
!!@@COMMENT:"Kretʒſchmer, Volkslieder J. Nr. 244, mitgetheilt von Kieſewetter aus dem Kuhländchen in Mähren."
!!@@END:
!!!URL-scan: https://archive.org/details/DeutschesKinderliedUndKinderspiel/page/28/mode/1up
!!!ENC: Anna Maria Matuszewska
!!!EEV: 2024/29/08
*-	*-
